X:7955
T:The birch tree
C:anon.
O:Russia
F:http://abc.musicaviva.com/tunes/russia/the-birch-tree.abc
M:2/4
L:1/8
K:Am
eeee|d2cc|B2A2|eege|ddcc|B2A2|B3c|d2cc|B2A2|B3c|decc|B2A2|]
W:
W:
W:  From Musica Viva - http://www.musicaviva.com
W:  the Internet center for free sheet music downloads.
